img/full-logo.svg

<svg width="228" height="81" fill="none" xmlns="http://www.w3.org/2000/svg"><g clip-path="url(#a)"><path d="M19.56 29.04v2.32H11.8V57H9V31.36H1.2v-2.32h18.36Zm20.621 21.32h-12.72L25.021 57h-2.96l10.2-27.6h3.16L45.581 57h-2.96l-2.44-6.64Zm-.84-2.32-5.52-15.12-5.52 15.12h11.04Zm20.814-5L68.635 57h-3.12l-7.12-11.68L51.635 57h-3.12l8.44-14.08-8.44-13.88h3.12l7.08 11.64 6.84-11.64h3.12l-8.52 14Zm16.118-14V57h-2.8V29.04h2.8Z" fill="#fff"/><path d="M93.32 34.4v5.68h9.16v5.28h-9.16v6.16h10.36V57h-17.2V28.92h17.2v5.48H93.32Zm22.081 17h12.08V57h-19.84v-5.2l12-17.28h-12v-5.6h19.84v5.2l-12.08 17.28Zm23.388-17v5.68h9.16v5.28h-9.16v6.16h10.36V57h-17.2V28.92h17.2v5.48h-10.36Zm21.64-5.48V57h-6.84V28.92h6.84Zm12.237 22.48h12.08V57h-19.84v-5.2l12-17.28h-12v-5.6h19.84v5.2l-12.08 17.28Zm34.028.64h-10.48l-1.68 4.96h-7.16l10.16-28.08h7.92L215.614 57h-7.24l-1.68-4.96Zm-1.76-5.28-3.48-10.28-3.44 10.28h6.92ZM86 61h9.75v10H86zM95.75 71h9.75v10h-9.75zM105.5 61h9.75v10h-9.75zM115.25 71H125v10h-9.75zM125 61h10v10h-10zM135 71h10v10h-10zM145 61h10v10h-10zM155 71h10v10h-10zM165 61h10v10h-10zM175 71h10v10h-10zM185 61h10v10h-10zM195 71h10v10h-10zM205 61h10v10h-10z" fill="#FFE600"/><path fill="#000" d="M197 28h1v1h-1z"/><mask id="b" style="mask-type:alpha" maskUnits="userSpaceOnUse" x="193" y="0" width="35" height="36"><path fill="#D9D9D9" d="M193 0h35v36h-35z"/></mask><g mask="url(#b)"><path d="M197.458 31.025v-3h26.25v3h-26.25Zm2.698-7.5L196 16.25l2.26-.45 2.552 2.325 7-1.95L201.906 5.9l2.844-.9 9.99 9.225 7.291-2.025c.778-.225 1.483-.075 2.115.45.632.525.948 1.225.948 2.1 0 .55-.164 1.037-.492 1.462a2.418 2.418 0 0 1-1.258.863l-23.188 6.45Z" fill="#FFE600"/></g></g><defs><clipPath id="a"><path fill="#fff" d="M0 0h228v81H0z"/></clipPath></defs></svg>

<svg width="228" height="81" viewBox="0 0 228 81" fill="none" xmlns="http://www.w3.org/2000/svg">
<g clip-path="url(#clip0_1_9)">
<path d="M19.56 29.04V31.36H11.8V57H9V31.36H1.2V29.04H19.56ZM40.1813 50.36H27.4613L25.0213 57H22.0613L32.2613 29.4H35.4213L45.5813 57H42.6213L40.1813 50.36ZM39.3413 48.04L33.8213 32.92L28.3013 48.04H39.3413ZM60.155 43.04L68.635 57H65.515L58.395 45.32L51.635 57H48.515L56.955 42.92L48.515 29.04H51.635L58.715 40.68L65.555 29.04H68.675L60.155 43.04ZM76.2734 29.04V57H73.4734V29.04H76.2734Z" fill="white"/>
<path d="M93.32 34.4V40.08H102.48V45.36H93.32V51.52H103.68V57H86.48V28.92H103.68V34.4H93.32ZM115.401 51.4H127.481V57H107.641V51.8L119.641 34.52H107.641V28.92H127.481V34.12L115.401 51.4ZM138.789 34.4V40.08H147.949V45.36H138.789V51.52H149.149V57H131.949V28.92H149.149V34.4H138.789ZM160.429 28.92V57H153.589V28.92H160.429ZM172.666 51.4H184.746V57H164.906V51.8L176.906 34.52H164.906V28.92H184.746V34.12L172.666 51.4ZM206.694 52.04H196.214L194.534 57H187.374L197.534 28.92H205.454L215.614 57H208.374L206.694 52.04ZM204.934 46.76L201.454 36.48L198.014 46.76H204.934Z" fill="#FFE600"/>
<rect x="86" y="61" width="9.75" height="10" fill="#FFE600"/>
<rect x="95.75" y="71" width="9.75" height="10" fill="#FFE600"/>
<rect x="105.5" y="61" width="9.75" height="10" fill="#FFE600"/>
<rect x="115.25" y="71" width="9.75" height="10" fill="#FFE600"/>
<rect x="125" y="61" width="10" height="10" fill="#FFE600"/>
<rect x="135" y="71" width="10" height="10" fill="#FFE600"/>
<rect x="145" y="61" width="10" height="10" fill="#FFE600"/>
<rect x="155" y="71" width="10" height="10" fill="#FFE600"/>
<rect x="165" y="61" width="10" height="10" fill="#FFE600"/>
<rect x="175" y="71" width="10" height="10" fill="#FFE600"/>
<rect x="185" y="61" width="10" height="10" fill="#FFE600"/>
<rect x="195" y="71" width="10" height="10" fill="#FFE600"/>
<rect x="205" y="61" width="10" height="10" fill="#FFE600"/>
<rect x="197" y="28" width="1" height="1" fill="black"/>
<mask id="mask0_1_9" style="mask-type:alpha" maskUnits="userSpaceOnUse" x="193" y="0" width="35" height="36">
<rect x="193" width="35" height="36" fill="#D9D9D9"/>
</mask>
<g mask="url(#mask0_1_9)">
<path d="M197.458 31.025V28.025H223.708V31.025H197.458ZM200.156 23.525L196 16.25L198.26 15.8L200.812 18.125L207.812 16.175L201.906 5.9L204.75 5L214.74 14.225L222.031 12.2C222.809 11.975 223.514 12.125 224.146 12.65C224.778 13.175 225.094 13.875 225.094 14.75C225.094 15.3 224.93 15.7875 224.602 16.2125C224.273 16.6375 223.854 16.925 223.344 17.075L200.156 23.525Z" fill="#FFE600"/>
</g>
</g>
<defs>
<clipPath id="clip0_1_9">
<rect width="228" height="81" fill="white"/>
</clipPath>
</defs>
</svg>
